; generated by g-maker(2022)

M104 S260 T1
M140 S60
M109 S260 T1
M190 S60
M106 P1 S255
G21
G90
M82
G28
M530 S1
G1 Z10 F900
M400
T0 R
G92 E0
G00 Z0.03
G92 U0.00
G01 Z0.83
G01 X70.00 Y50.00 U55.00 F2000
G01 Z-0.03
G4 S2.5
G92 U0.00
G01 Z0.025
G01 X71.50 Y50.00 U1.50 F600.00
G01 X73.00 Y50.00 U3.00 F600.00
G01 X74.50 Y50.00 U4.50 F600.00
G01 X76.00 Y50.00 U6.00 F600.00
G01 X77.50 Y50.00 U7.50 F600.00
G01 X79.00 Y50.00 U9.00 F600.00
G01 X80.50 Y50.00 U10.50 F600.00
G01 X82.00 Y50.00 U12.00 F600.00
G01 X83.50 Y50.00 U13.50 F600.00
G01 X85.00 Y50.00 U15.00 F600.00
G01 X86.50 Y50.00 U16.50 F600.00
G01 X88.00 Y50.00 U18.00 F600.00
G01 X89.50 Y50.00 U19.50 F600.00
G01 X91.00 Y50.00 U21.00 F600.00
G01 X92.50 Y50.00 U22.50 F600.00
G01 X94.00 Y50.00 U24.00 F600.00
G01 X95.50 Y50.00 U25.50 F600.00
G01 X97.00 Y50.00 U27.00 F600.00
G01 X98.50 Y50.00 U28.50 F600.00
G01 X100.00 Y50.00 U30.00 F600.00
G01 X101.50 Y50.00 U31.50 F600.00
G01 X103.00 Y50.00 U33.00 F600.00
G01 X104.50 Y50.00 U34.50 F600.00
G01 X106.00 Y50.00 U36.00 F600.00
G01 X107.50 Y50.00 U37.50 F600.00
G01 X109.00 Y50.00 U39.00 F600.00
G01 X110.50 Y50.00 U40.50 F600.00
G01 X112.00 Y50.00 U42.00 F600.00
G01 X113.50 Y50.00 U43.50 F600.00
G01 X115.00 Y50.00 U45.00 F600.00
G01 X116.50 Y50.00 U46.50 F600.00
G01 X118.00 Y50.00 U48.00 F600.00
G01 X119.50 Y50.00 U49.50 F600.00
G01 X121.00 Y50.00 U51.00 F600.00
G01 X122.50 Y50.00 U52.50 F600.00
G01 X124.00 Y50.00 U54.00 F600.00
G01 X125.50 Y50.00 U55.50 F600.00
G01 X127.00 Y50.00 U57.00 F600.00
G01 X128.50 Y50.00 U58.50 F600.00
G01 X130.00 Y50.00 U60.00 F600.00
G01 X131.50 Y50.00 U61.50 F600.00
G01 X133.00 Y50.00 U63.00 F600.00
G01 X134.50 Y50.00 U64.50 F600.00
G01 X136.00 Y50.00 U66.00 F600.00
G01 X137.50 Y50.00 U67.50 F600.00
G01 X139.00 Y50.00 U69.00 F600.00
G01 X140.50 Y50.00 U70.50 F600.00
G01 X142.00 Y50.00 U72.00 F600.00
G01 X143.50 Y50.00 U73.50 F600.00
G01 X145.00 Y50.00 U75.00 F600.00
G01 X146.50 Y50.00 U76.50 F600.00
G01 X148.00 Y50.00 U78.00 F600.00
G01 X149.50 Y50.00 U79.50 F600.00
G01 X151.00 Y50.00 U81.00 F600.00
G01 X152.50 Y50.00 U82.50 F600.00
G01 X154.00 Y50.00 U84.00 F600.00
G01 X155.50 Y50.00 U85.50 F600.00
G01 X157.00 Y50.00 U87.00 F600.00
G01 X158.50 Y50.00 U88.50 F600.00
G01 X160.00 Y50.00 U90.00 F600.00
G01 X161.50 Y50.00 U91.50 F600.00
G01 X163.00 Y50.00 U93.00 F600.00
G01 X164.50 Y50.00 U94.50 F600.00
G01 X166.00 Y50.00 U96.00 F600.00
G01 X167.50 Y50.00 U97.50 F600.00
G01 X169.00 Y50.00 U99.00 F600.00
G01 X170.50 Y50.00 U100.50 F600.00
G01 X172.00 Y50.00 U102.00 F600.00
G01 X173.50 Y50.00 U103.50 F600.00
G01 X175.00 Y50.00 U105.00 F600.00
G01 X176.50 Y50.00 U106.50 F600.00
G01 X178.00 Y50.00 U108.00 F600.00
G01 X179.50 Y50.00 U109.50 F600.00
G01 X181.00 Y50.00 U111.00 F600.00
G01 X182.50 Y50.00 U112.50 F600.00
G01 X184.00 Y50.00 U114.00 F600.00
G01 X185.50 Y50.00 U115.50 F600.00
G01 X187.00 Y50.00 U117.00 F600.00
G01 X188.50 Y50.00 U118.50 F600.00
G01 X190.00 Y50.00 U120.00 F600.00
G01 X191.50 Y50.00 U121.50 F600.00
G01 X193.00 Y50.00 U123.00 F600.00
G01 X194.50 Y50.00 U124.50 F600.00
G01 X196.00 Y50.00 U126.00 F600.00
G01 X197.50 Y50.00 U127.50 F600.00
G01 X199.00 Y50.00 U129.00 F600.00
G01 X200.50 Y50.00 U130.50 F600.00
G01 X202.00 Y50.00 U132.00 F600.00
G01 X203.50 Y50.00 U133.50 F600.00
G01 X205.00 Y50.00 U135.00 F600.00
G01 X206.50 Y50.00 U136.50 F600.00
G01 X208.00 Y50.00 U138.00 F600.00
G01 X209.50 Y50.00 U139.50 F600.00
G01 X211.00 Y50.00 U141.00 F600.00
G01 X212.50 Y50.00 U142.50 F600.00
G01 X214.00 Y50.00 U144.00 F600.00
G01 X215.50 Y50.00 U145.50 F600.00
G01 X217.00 Y50.00 U147.00 F600.00
G01 X218.50 Y50.00 U148.50 F600.00
G01 X220.00 Y50.00 U150.00 F600.00
G01 X220.00 Y51.00 U151.00 F600.00
G01 X218.50 Y51.00 U152.50 F600.00
G01 X217.00 Y51.00 U154.00 F600.00
G01 X215.50 Y51.00 U155.50 F600.00
G01 X214.00 Y51.00 U157.00 F600.00
G01 X212.50 Y51.00 U158.50 F600.00
G01 X211.00 Y51.00 U160.00 F600.00
G01 X209.50 Y51.00 U161.50 F600.00
G01 X208.00 Y51.00 U163.00 F600.00
G01 X206.50 Y51.00 U164.50 F600.00
G01 X205.00 Y51.00 U166.00 F600.00
G01 X203.50 Y51.00 U167.50 F600.00
G01 X202.00 Y51.00 U169.00 F600.00
G01 X200.50 Y51.00 U170.50 F600.00
G01 X199.00 Y51.00 U172.00 F600.00
G01 X197.50 Y51.00 U173.50 F600.00
G01 X196.00 Y51.00 U175.00 F600.00
G01 X194.50 Y51.00 U176.50 F600.00
G01 X193.00 Y51.00 U178.00 F600.00
G01 X191.50 Y51.00 U179.50 F600.00
G01 X190.00 Y51.00 U181.00 F600.00
G01 X188.50 Y51.00 U182.50 F600.00
G01 X187.00 Y51.00 U184.00 F600.00
G01 X185.50 Y51.00 U185.50 F600.00
G01 X184.00 Y51.00 U187.00 F600.00
G01 X182.50 Y51.00 U188.50 F600.00
G01 X181.00 Y51.00 U190.00 F600.00
G01 X179.50 Y51.00 U191.50 F600.00
G01 X178.00 Y51.00 U193.00 F600.00
G01 X176.50 Y51.00 U194.50 F600.00
G01 X175.00 Y51.00 U196.00 F600.00
G01 X173.50 Y51.00 U197.50 F600.00
G01 X172.00 Y51.00 U199.00 F600.00
G01 X170.50 Y51.00 U200.50 F600.00
G01 X169.00 Y51.00 U202.00 F600.00
G01 X167.50 Y51.00 U203.50 F600.00
G01 X166.00 Y51.00 U205.00 F600.00
G01 X164.50 Y51.00 U206.50 F600.00
G01 X163.00 Y51.00 U208.00 F600.00
G01 X161.50 Y51.00 U209.50 F600.00
G01 X160.00 Y51.00 U211.00 F600.00
G01 X158.50 Y51.00 U212.50 F600.00
G01 X157.00 Y51.00 U214.00 F600.00
G01 X155.50 Y51.00 U215.50 F600.00
G01 X154.00 Y51.00 U217.00 F600.00
G01 X152.50 Y51.00 U218.50 F600.00
G01 X151.00 Y51.00 U220.00 F600.00
G01 X149.50 Y51.00 U221.50 F600.00
G01 X148.00 Y51.00 U223.00 F600.00
G01 X146.50 Y51.00 U224.50 F600.00
G01 X145.00 Y51.00 U226.00 F600.00
G01 X143.50 Y51.00 U227.50 F600.00
G01 X142.00 Y51.00 U229.00 F600.00
G01 X140.50 Y51.00 U230.50 F600.00
G01 X139.00 Y51.00 U232.00 F600.00
G01 X137.50 Y51.00 U233.50 F600.00
G01 X136.00 Y51.00 U235.00 F600.00
G01 X134.50 Y51.00 U236.50 F600.00
G01 X133.00 Y51.00 U238.00 F600.00
G01 X131.50 Y51.00 U239.50 F600.00
G01 X130.00 Y51.00 U241.00 F600.00
G01 X128.50 Y51.00 U242.50 F600.00
G01 X127.00 Y51.00 U244.00 F600.00
G01 X125.50 Y51.00 U245.50 F600.00
G01 X124.00 Y51.00 U247.00 F600.00
G01 X122.50 Y51.00 U248.50 F600.00
G01 X121.00 Y51.00 U250.00 F600.00
G01 X119.50 Y51.00 U251.50 F600.00
G01 X118.00 Y51.00 U253.00 F600.00
G01 X116.50 Y51.00 U254.50 F600.00
G01 X115.00 Y51.00 U256.00 F600.00
G01 X113.50 Y51.00 U257.50 F600.00
G01 X112.00 Y51.00 U259.00 F600.00
G01 X110.50 Y51.00 U260.50 F600.00
G01 X109.00 Y51.00 U262.00 F600.00
G01 X107.50 Y51.00 U263.50 F600.00
G01 X106.00 Y51.00 U265.00 F600.00
G01 X104.50 Y51.00 U266.50 F600.00
G01 X103.00 Y51.00 U268.00 F600.00
G01 X101.50 Y51.00 U269.50 F600.00
G01 X100.00 Y51.00 U271.00 F600.00
G01 X98.50 Y51.00 U272.50 F600.00
G01 X97.00 Y51.00 U274.00 F600.00
G01 X95.50 Y51.00 U275.50 F600.00
G01 X94.00 Y51.00 U277.00 F600.00
G01 X92.50 Y51.00 U278.50 F600.00
G01 X91.00 Y51.00 U280.00 F600.00
G01 X89.50 Y51.00 U281.50 F600.00
G01 X88.00 Y51.00 U283.00 F600.00
G01 X86.50 Y51.00 U284.50 F600.00
G01 X85.00 Y51.00 U286.00 F600.00
G01 X83.50 Y51.00 U287.50 F600.00
G01 X82.00 Y51.00 U289.00 F600.00
G01 X80.50 Y51.00 U290.50 F600.00
G01 X79.00 Y51.00 U292.00 F600.00
G01 X77.50 Y51.00 U293.50 F600.00
G01 X76.00 Y51.00 U295.00 F600.00
G01 X74.50 Y51.00 U296.50 F600.00
G01 X73.00 Y51.00 U298.00 F600.00
G01 X71.50 Y51.00 U299.50 F600.00
G01 X70.00 Y51.00 U301.00 F600.00
G01 X70.00 Y52.00 U302.00 F600.00
G01 X71.50 Y52.00 U303.50 F600.00
G01 X73.00 Y52.00 U305.00 F600.00
G01 X74.50 Y52.00 U306.50 F600.00
G01 X76.00 Y52.00 U308.00 F600.00
G01 X77.50 Y52.00 U309.50 F600.00
G01 X79.00 Y52.00 U311.00 F600.00
G01 X80.50 Y52.00 U312.50 F600.00
G01 X82.00 Y52.00 U314.00 F600.00
G01 X83.50 Y52.00 U315.50 F600.00
G01 X85.00 Y52.00 U317.00 F600.00
G01 X86.50 Y52.00 U318.50 F600.00
G01 X88.00 Y52.00 U320.00 F600.00
G01 X89.50 Y52.00 U321.50 F600.00
G01 X91.00 Y52.00 U323.00 F600.00
G01 X92.50 Y52.00 U324.50 F600.00
G01 X94.00 Y52.00 U326.00 F600.00
G01 X95.50 Y52.00 U327.50 F600.00
G01 X97.00 Y52.00 U329.00 F600.00
G01 X98.50 Y52.00 U330.50 F600.00
G01 X100.00 Y52.00 U332.00 F600.00
G01 X101.50 Y52.00 U333.50 F600.00
G01 X103.00 Y52.00 U335.00 F600.00
G01 X104.50 Y52.00 U336.50 F600.00
G01 X106.00 Y52.00 U338.00 F600.00
G01 X107.50 Y52.00 U339.50 F600.00
G01 X109.00 Y52.00 U341.00 F600.00
G01 X110.50 Y52.00 U342.50 F600.00
G01 X112.00 Y52.00 U344.00 F600.00
G01 X113.50 Y52.00 U345.50 F600.00
G01 X115.00 Y52.00 U347.00 F600.00
G01 X116.50 Y52.00 U348.50 F600.00
G01 X118.00 Y52.00 U350.00 F600.00
G01 X119.50 Y52.00 U351.50 F600.00
G01 X121.00 Y52.00 U353.00 F600.00
G01 X122.50 Y52.00 U354.50 F600.00
G01 X124.00 Y52.00 U356.00 F600.00
G01 X125.50 Y52.00 U357.50 F600.00
G01 X127.00 Y52.00 U359.00 F600.00
G01 X128.50 Y52.00 U360.50 F600.00
G01 X130.00 Y52.00 U362.00 F600.00
G01 X131.50 Y52.00 U363.50 F600.00
G01 X133.00 Y52.00 U365.00 F600.00
G01 X134.50 Y52.00 U366.50 F600.00
G01 X136.00 Y52.00 U368.00 F600.00
G01 X137.50 Y52.00 U369.50 F600.00
G01 X139.00 Y52.00 U371.00 F600.00
G01 X140.50 Y52.00 U372.50 F600.00
G01 X142.00 Y52.00 U374.00 F600.00
G01 X143.50 Y52.00 U375.50 F600.00
G01 X145.00 Y52.00 U377.00 F600.00
G01 X146.50 Y52.00 U378.50 F600.00
G01 X148.00 Y52.00 U380.00 F600.00
G01 X149.50 Y52.00 U381.50 F600.00
G01 X151.00 Y52.00 U383.00 F600.00
G01 X152.50 Y52.00 U384.50 F600.00
G01 X154.00 Y52.00 U386.00 F600.00
G01 X155.50 Y52.00 U387.50 F600.00
G01 X157.00 Y52.00 U389.00 F600.00
G01 X158.50 Y52.00 U390.50 F600.00
G01 X160.00 Y52.00 U392.00 F600.00
G01 X161.50 Y52.00 U393.50 F600.00
G01 X163.00 Y52.00 U395.00 F600.00
G01 X164.50 Y52.00 U396.50 F600.00
G01 X166.00 Y52.00 U398.00 F600.00
G01 X167.50 Y52.00 U399.50 F600.00
G01 X169.00 Y52.00 U401.00 F600.00
G01 X170.50 Y52.00 U402.50 F600.00
G01 X172.00 Y52.00 U404.00 F600.00
G01 X173.50 Y52.00 U405.50 F600.00
G01 X175.00 Y52.00 U407.00 F600.00
G01 X176.50 Y52.00 U408.50 F600.00
G01 X178.00 Y52.00 U410.00 F600.00
G01 X179.50 Y52.00 U411.50 F600.00
G01 X181.00 Y52.00 U413.00 F600.00
G01 X182.50 Y52.00 U414.50 F600.00
G01 X184.00 Y52.00 U416.00 F600.00
G01 X185.50 Y52.00 U417.50 F600.00
G01 X187.00 Y52.00 U419.00 F600.00
G01 X188.50 Y52.00 U420.50 F600.00
G01 X190.00 Y52.00 U422.00 F600.00
G01 X191.50 Y52.00 U423.50 F600.00
G01 X193.00 Y52.00 U425.00 F600.00
G01 X194.50 Y52.00 U426.50 F600.00
G01 X196.00 Y52.00 U428.00 F600.00
G01 X197.50 Y52.00 U429.50 F600.00
G01 X199.00 Y52.00 U431.00 F600.00
G01 X200.50 Y52.00 U432.50 F600.00
G01 X202.00 Y52.00 U434.00 F600.00
G01 X203.50 Y52.00 U435.50 F600.00
G01 X205.00 Y52.00 U437.00 F600.00
G01 X206.50 Y52.00 U438.50 F600.00
G01 X208.00 Y52.00 U440.00 F600.00
G01 X209.50 Y52.00 U441.50 F600.00
G01 X211.00 Y52.00 U443.00 F600.00
G01 X212.50 Y52.00 U444.50 F600.00
G01 X214.00 Y52.00 U446.00 F600.00
G01 X215.50 Y52.00 U447.50 F600.00
G01 X217.00 Y52.00 U449.00 F600.00
G01 X218.50 Y52.00 U450.50 F600.00
G01 X220.00 Y52.00 U452.00 F600.00
G01 X220.00 Y53.00 U453.00 F600.00
G01 X218.50 Y53.00 U454.50 F600.00
G01 X217.00 Y53.00 U456.00 F600.00
G01 X215.50 Y53.00 U457.50 F600.00
G01 X214.00 Y53.00 U459.00 F600.00
G01 X212.50 Y53.00 U460.50 F600.00
G01 X211.00 Y53.00 U462.00 F600.00
G01 X209.50 Y53.00 U463.50 F600.00
G01 X208.00 Y53.00 U465.00 F600.00
G01 X206.50 Y53.00 U466.50 F600.00
G01 X205.00 Y53.00 U468.00 F600.00
G01 X203.50 Y53.00 U469.50 F600.00
G01 X202.00 Y53.00 U471.00 F600.00
G01 X200.50 Y53.00 U472.50 F600.00
G01 X199.00 Y53.00 U474.00 F600.00
G01 X197.50 Y53.00 U475.50 F600.00
G01 X196.00 Y53.00 U477.00 F600.00
G01 X194.50 Y53.00 U478.50 F600.00
G01 X193.00 Y53.00 U480.00 F600.00
G01 X191.50 Y53.00 U481.50 F600.00
G01 X190.00 Y53.00 U483.00 F600.00
G01 X188.50 Y53.00 U484.50 F600.00
G01 X187.00 Y53.00 U486.00 F600.00
G01 X185.50 Y53.00 U487.50 F600.00
G01 X184.00 Y53.00 U489.00 F600.00
G01 X182.50 Y53.00 U490.50 F600.00
G01 X181.00 Y53.00 U492.00 F600.00
G01 X179.50 Y53.00 U493.50 F600.00
G01 X178.00 Y53.00 U495.00 F600.00
G01 X176.50 Y53.00 U496.50 F600.00
G01 X175.00 Y53.00 U498.00 F600.00
G01 X173.50 Y53.00 U499.50 F600.00
G01 X172.00 Y53.00 U501.00 F600.00
G01 X170.50 Y53.00 U502.50 F600.00
G01 X169.00 Y53.00 U504.00 F600.00
G01 X167.50 Y53.00 U505.50 F600.00
G01 X166.00 Y53.00 U507.00 F600.00
G01 X164.50 Y53.00 U508.50 F600.00
G01 X163.00 Y53.00 U510.00 F600.00
G01 X161.50 Y53.00 U511.50 F600.00
G01 X160.00 Y53.00 U513.00 F600.00
G01 X158.50 Y53.00 U514.50 F600.00
G01 X157.00 Y53.00 U516.00 F600.00
G01 X155.50 Y53.00 U517.50 F600.00
G01 X154.00 Y53.00 U519.00 F600.00
G01 X152.50 Y53.00 U520.50 F600.00
G01 X151.00 Y53.00 U522.00 F600.00
G01 X149.50 Y53.00 U523.50 F600.00
G01 X148.00 Y53.00 U525.00 F600.00
G01 X146.50 Y53.00 U526.50 F600.00
G01 X145.00 Y53.00 U528.00 F600.00
G01 X143.50 Y53.00 U529.50 F600.00
G01 X142.00 Y53.00 U531.00 F600.00
G01 X140.50 Y53.00 U532.50 F600.00
G01 X139.00 Y53.00 U534.00 F600.00
G01 X137.50 Y53.00 U535.50 F600.00
G01 X136.00 Y53.00 U537.00 F600.00
G01 X134.50 Y53.00 U538.50 F600.00
G01 X133.00 Y53.00 U540.00 F600.00
G01 X131.50 Y53.00 U541.50 F600.00
G01 X130.00 Y53.00 U543.00 F600.00
G01 X128.50 Y53.00 U544.50 F600.00
G01 X127.00 Y53.00 U546.00 F600.00
G01 X125.50 Y53.00 U547.50 F600.00
G01 X124.00 Y53.00 U549.00 F600.00
G01 X122.50 Y53.00 U550.50 F600.00
G01 X121.00 Y53.00 U552.00 F600.00
G01 X119.50 Y53.00 U553.50 F600.00
G01 X118.00 Y53.00 U555.00 F600.00
G01 X116.50 Y53.00 U556.50 F600.00
G01 X115.00 Y53.00 U558.00 F600.00
G01 X113.50 Y53.00 U559.50 F600.00
G01 X112.00 Y53.00 U561.00 F600.00
G01 X110.50 Y53.00 U562.50 F600.00
G01 X109.00 Y53.00 U564.00 F600.00
G01 X107.50 Y53.00 U565.50 F600.00
G01 X106.00 Y53.00 U567.00 F600.00
G01 X104.50 Y53.00 U568.50 F600.00
G01 X103.00 Y53.00 U570.00 F600.00
G01 X101.50 Y53.00 U571.50 F600.00
G01 X100.00 Y53.00 U573.00 F600.00
G01 X98.50 Y53.00 U574.50 F600.00
G01 X97.00 Y53.00 U576.00 F600.00
G01 X95.50 Y53.00 U577.50 F600.00
G01 X94.00 Y53.00 U579.00 F600.00
G01 X92.50 Y53.00 U580.50 F600.00
G01 X91.00 Y53.00 U582.00 F600.00
G01 X89.50 Y53.00 U583.50 F600.00
G01 X88.00 Y53.00 U585.00 F600.00
G01 X86.50 Y53.00 U586.50 F600.00
G01 X85.00 Y53.00 U588.00 F600.00
G01 X83.50 Y53.00 U589.50 F600.00
G01 X82.00 Y53.00 U591.00 F600.00
G01 X80.50 Y53.00 U592.50 F600.00
G01 X79.00 Y53.00 U594.00 F600.00
G01 X77.50 Y53.00 U595.50 F600.00
G01 X76.00 Y53.00 U597.00 F600.00
G01 X74.50 Y53.00 U598.50 F600.00
G01 X73.00 Y53.00 U600.00 F600.00
G01 X71.50 Y53.00 U601.50 F600.00
G01 X70.00 Y53.00 U603.00 F600.00
G01 X70.00 Y54.00 U604.00 F600.00
G01 X71.50 Y54.00 U605.50 F600.00
G01 X73.00 Y54.00 U607.00 F600.00
G01 X74.50 Y54.00 U608.50 F600.00
G01 X76.00 Y54.00 U610.00 F600.00
G01 X77.50 Y54.00 U611.50 F600.00
G01 X79.00 Y54.00 U613.00 F600.00
G01 X80.50 Y54.00 U614.50 F600.00
G01 X82.00 Y54.00 U616.00 F600.00
G01 X83.50 Y54.00 U617.50 F600.00
G01 X85.00 Y54.00 U619.00 F600.00
G01 X86.50 Y54.00 U620.50 F600.00
G01 X88.00 Y54.00 U622.00 F600.00
G01 X89.50 Y54.00 U623.50 F600.00
G01 X91.00 Y54.00 U625.00 F600.00
G01 X92.50 Y54.00 U626.50 F600.00
G01 X94.00 Y54.00 U628.00 F600.00
G01 X95.50 Y54.00 U629.50 F600.00
G01 X97.00 Y54.00 U631.00 F600.00
G01 X98.50 Y54.00 U632.50 F600.00
G01 X100.00 Y54.00 U634.00 F600.00
G01 X101.50 Y54.00 U635.50 F600.00
G01 X103.00 Y54.00 U637.00 F600.00
G01 X104.50 Y54.00 U638.50 F600.00
G01 X106.00 Y54.00 U640.00 F600.00
G01 X107.50 Y54.00 U641.50 F600.00
G01 X109.00 Y54.00 U643.00 F600.00
G01 X110.50 Y54.00 U644.50 F600.00
G01 X112.00 Y54.00 U646.00 F600.00
G01 X113.50 Y54.00 U647.50 F600.00
G01 X115.00 Y54.00 U649.00 F600.00
G01 X116.50 Y54.00 U650.50 F600.00
G01 X118.00 Y54.00 U652.00 F600.00
G01 X119.50 Y54.00 U653.50 F600.00
G01 X121.00 Y54.00 U655.00 F600.00
G01 X122.50 Y54.00 U656.50 F600.00
G01 X124.00 Y54.00 U658.00 F600.00
G01 X125.50 Y54.00 U659.50 F600.00
G01 X127.00 Y54.00 U661.00 F600.00
G01 X128.50 Y54.00 U662.50 F600.00
G01 X130.00 Y54.00 U664.00 F600.00
G01 X131.50 Y54.00 U665.50 F600.00
G01 X133.00 Y54.00 U667.00 F600.00
G01 X134.50 Y54.00 U668.50 F600.00
G01 X136.00 Y54.00 U670.00 F600.00
G01 X137.50 Y54.00 U671.50 F600.00
G01 X139.00 Y54.00 U673.00 F600.00
G01 X140.50 Y54.00 U674.50 F600.00
G01 X142.00 Y54.00 U676.00 F600.00
G01 X143.50 Y54.00 U677.50 F600.00
G01 X145.00 Y54.00 U679.00 F600.00
G01 X146.50 Y54.00 U680.50 F600.00
