; generated by g-maker(2022)

M104 S260 T1
M140 S60
M109 S260 T1
M190 S60
M106 P1 S255
G21
G90
M82
G28
M530 S1
G1 Z10 F900
M400
T0 R
G92 E0
G00 Z0.03
G92 U0.00
G01 Z0.83
G01 X20.00 Y50.00 U55.00 F2000
G01 Z-0.03
G4 S2.5
G92 U0.00
G01 Z0.025
G01 X21.10 Y50.00 U1.06 F600.00
G01 X22.20 Y50.00 U2.11 F600.00
G01 X23.30 Y50.00 U3.17 F600.00
G01 X24.40 Y50.00 U4.22 F600.00
G01 X25.50 Y50.00 U5.28 F600.00
G01 X26.60 Y50.00 U6.34 F600.00
G01 X27.70 Y50.00 U7.39 F600.00
G01 X28.80 Y50.00 U8.45 F600.00
G01 X29.90 Y50.00 U9.50 F600.00
G01 X31.00 Y50.00 U10.56 F600.00
G01 X32.10 Y50.00 U11.62 F600.00
G01 X33.20 Y50.00 U12.67 F600.00
G01 X34.30 Y50.00 U13.73 F600.00
G01 X35.40 Y50.00 U14.78 F600.00
G01 X36.50 Y50.00 U15.84 F600.00
G01 X37.60 Y50.00 U16.90 F600.00
G01 X38.70 Y50.00 U17.95 F600.00
G01 X39.80 Y50.00 U19.01 F600.00
G01 X40.90 Y50.00 U20.06 F600.00
G01 X42.00 Y50.00 U21.12 F600.00
G01 X43.10 Y50.00 U22.18 F600.00
G01 X44.20 Y50.00 U23.23 F600.00
G01 X45.30 Y50.00 U24.29 F600.00
G01 X46.40 Y50.00 U25.34 F600.00
G01 X47.50 Y50.00 U26.40 F600.00
G01 X48.60 Y50.00 U27.46 F600.00
G01 X49.70 Y50.00 U28.51 F600.00
G01 X50.80 Y50.00 U29.57 F600.00
G01 X51.90 Y50.00 U30.62 F600.00
G01 X53.00 Y50.00 U31.68 F600.00
G01 X54.10 Y50.00 U32.74 F600.00
G01 X55.20 Y50.00 U33.79 F600.00
G01 X56.30 Y50.00 U34.85 F600.00
G01 X57.40 Y50.00 U35.90 F600.00
G01 X58.50 Y50.00 U36.96 F600.00
G01 X59.60 Y50.00 U38.02 F600.00
G01 X60.70 Y50.00 U39.07 F600.00
G01 X61.80 Y50.00 U40.13 F600.00
G01 X62.90 Y50.00 U41.18 F600.00
G01 X64.00 Y50.00 U42.24 F600.00
G01 X65.10 Y50.00 U43.30 F600.00
G01 X66.20 Y50.00 U44.35 F600.00
G01 X67.30 Y50.00 U45.41 F600.00
G01 X68.40 Y50.00 U46.46 F600.00
G01 X69.50 Y50.00 U47.52 F600.00
G01 X70.60 Y50.00 U48.58 F600.00
G01 X71.70 Y50.00 U49.63 F600.00
G01 X72.80 Y50.00 U50.69 F600.00
G01 X73.90 Y50.00 U51.74 F600.00
G01 X75.00 Y50.00 U52.80 F600.00
G01 X76.10 Y50.00 U53.86 F600.00
G01 X77.20 Y50.00 U54.91 F600.00
G01 X78.30 Y50.00 U55.97 F600.00
G01 X79.40 Y50.00 U57.02 F600.00
G01 X80.50 Y50.00 U58.08 F600.00
G01 X81.60 Y50.00 U59.14 F600.00
G01 X82.70 Y50.00 U60.19 F600.00
G01 X83.80 Y50.00 U61.25 F600.00
G01 X84.90 Y50.00 U62.30 F600.00
G01 X86.00 Y50.00 U63.36 F600.00
G01 X87.10 Y50.00 U64.42 F600.00
G01 X88.20 Y50.00 U65.47 F600.00
G01 X89.30 Y50.00 U66.53 F600.00
G01 X90.40 Y50.00 U67.58 F600.00
G01 X91.50 Y50.00 U68.64 F600.00
G01 X92.60 Y50.00 U69.70 F600.00
G01 X93.70 Y50.00 U70.75 F600.00
G01 X94.80 Y50.00 U71.81 F600.00
G01 X95.90 Y50.00 U72.86 F600.00
G01 X97.00 Y50.00 U73.92 F600.00
G01 X98.10 Y50.00 U74.98 F600.00
G01 X99.20 Y50.00 U76.03 F600.00
G01 X100.30 Y50.00 U77.09 F600.00
G01 X101.40 Y50.00 U78.14 F600.00
G01 X102.50 Y50.00 U79.20 F600.00
G01 X103.60 Y50.00 U80.26 F600.00
G01 X104.70 Y50.00 U81.31 F600.00
G01 X105.80 Y50.00 U82.37 F600.00
G01 X106.90 Y50.00 U83.42 F600.00
G01 X108.00 Y50.00 U84.48 F600.00
G01 X109.10 Y50.00 U85.54 F600.00
G01 X110.20 Y50.00 U86.59 F600.00
G01 X111.30 Y50.00 U87.65 F600.00
G01 X112.40 Y50.00 U88.70 F600.00
G01 X113.50 Y50.00 U89.76 F600.00
G01 X114.60 Y50.00 U90.82 F600.00
G01 X115.70 Y50.00 U91.87 F600.00
G01 X116.80 Y50.00 U92.93 F600.00
G01 X117.90 Y50.00 U93.98 F600.00
G01 X119.00 Y50.00 U95.04 F600.00
G01 X120.10 Y50.00 U96.10 F600.00
G01 X121.20 Y50.00 U97.15 F600.00
G01 X122.30 Y50.00 U98.21 F600.00
G01 X123.40 Y50.00 U99.26 F600.00
G01 X124.50 Y50.00 U100.32 F600.00
G01 X125.60 Y50.00 U101.38 F600.00
G01 X126.70 Y50.00 U102.43 F600.00
G01 X127.80 Y50.00 U103.49 F600.00
G01 X128.90 Y50.00 U104.54 F600.00
G01 X130.00 Y50.00 U105.60 F600.00
G01 X131.10 Y50.00 U106.66 F600.00
G01 X132.20 Y50.00 U107.71 F600.00
G01 X133.30 Y50.00 U108.77 F600.00
G01 X134.40 Y50.00 U109.82 F600.00
G01 X135.50 Y50.00 U110.88 F600.00
G01 X136.60 Y50.00 U111.94 F600.00
G01 X137.70 Y50.00 U112.99 F600.00
G01 X138.80 Y50.00 U114.05 F600.00
G01 X139.90 Y50.00 U115.10 F600.00
G01 X141.00 Y50.00 U116.16 F600.00
G01 X142.10 Y50.00 U117.22 F600.00
G01 X143.20 Y50.00 U118.27 F600.00
G01 X144.30 Y50.00 U119.33 F600.00
G01 X145.40 Y50.00 U120.38 F600.00
G01 X146.50 Y50.00 U121.44 F600.00
G01 X147.60 Y50.00 U122.50 F600.00
G01 X148.70 Y50.00 U123.55 F600.00
G01 X149.80 Y50.00 U124.61 F600.00
G01 X150.90 Y50.00 U125.66 F600.00
G01 X152.00 Y50.00 U126.72 F600.00
G01 X153.10 Y50.00 U127.78 F600.00
G01 X154.20 Y50.00 U128.83 F600.00
G01 X155.30 Y50.00 U129.89 F600.00
G01 X156.40 Y50.00 U130.94 F600.00
G01 X157.50 Y50.00 U132.00 F600.00
G01 X158.60 Y50.00 U133.06 F600.00
G01 X159.70 Y50.00 U134.11 F600.00
G01 X160.80 Y50.00 U135.17 F600.00
G01 X161.90 Y50.00 U136.22 F600.00
G01 X163.00 Y50.00 U137.28 F600.00
G01 X164.10 Y50.00 U138.34 F600.00
G01 X165.20 Y50.00 U139.39 F600.00
G01 X166.30 Y50.00 U140.45 F600.00
G01 X167.40 Y50.00 U141.50 F600.00
G01 X168.50 Y50.00 U142.56 F600.00
G01 X169.60 Y50.00 U143.62 F600.00
G01 X170.70 Y50.00 U144.67 F600.00
G01 X171.80 Y50.00 U145.73 F600.00
G01 X172.90 Y50.00 U146.78 F600.00
G01 X174.00 Y50.00 U147.84 F600.00
G01 X175.10 Y50.00 U148.90 F600.00
G01 X176.20 Y50.00 U149.95 F600.00
G01 X177.30 Y50.00 U151.01 F600.00
G01 X178.40 Y50.00 U152.06 F600.00
G01 X179.50 Y50.00 U153.12 F600.00
G01 X180.60 Y50.00 U154.18 F600.00
G01 X181.70 Y50.00 U155.23 F600.00
G01 X182.80 Y50.00 U156.29 F600.00
G01 X183.90 Y50.00 U157.34 F600.00
G01 X185.00 Y50.00 U158.40 F600.00
G01 X186.10 Y50.00 U159.46 F600.00
G01 X187.20 Y50.00 U160.51 F600.00
G01 X188.30 Y50.00 U161.57 F600.00
G01 X189.40 Y50.00 U162.62 F600.00
G01 X190.50 Y50.00 U163.68 F600.00
G01 X191.60 Y50.00 U164.74 F600.00
G01 X192.70 Y50.00 U165.79 F600.00
G01 X193.80 Y50.00 U166.85 F600.00
G01 X194.90 Y50.00 U167.90 F600.00
G01 X196.00 Y50.00 U168.96 F600.00
G01 X197.10 Y50.00 U170.02 F600.00
G01 X198.20 Y50.00 U171.07 F600.00
G01 X199.30 Y50.00 U172.13 F600.00
G01 X200.40 Y50.00 U173.18 F600.00
G01 X201.50 Y50.00 U174.24 F600.00
G01 X202.60 Y50.00 U175.30 F600.00
G01 X203.70 Y50.00 U176.35 F600.00
G01 X204.80 Y50.00 U177.41 F600.00
G01 X205.90 Y50.00 U178.46 F600.00
G01 X207.00 Y50.00 U179.52 F600.00
G01 X208.10 Y50.00 U180.58 F600.00
G01 X209.20 Y50.00 U181.63 F600.00
G01 X210.30 Y50.00 U182.69 F600.00
G01 X211.40 Y50.00 U183.74 F600.00
G01 X212.50 Y50.00 U184.80 F600.00
G01 X213.60 Y50.00 U185.86 F600.00
G01 X214.70 Y50.00 U186.91 F600.00
G01 X215.80 Y50.00 U187.97 F600.00
G01 X216.90 Y50.00 U189.02 F600.00
G01 X218.00 Y50.00 U190.08 F600.00
G01 X219.10 Y50.00 U191.14 F600.00
G01 X220.20 Y50.00 U192.19 F600.00
G01 X221.30 Y50.00 U193.25 F600.00
G01 X222.40 Y50.00 U194.30 F600.00
G01 X223.50 Y50.00 U195.36 F600.00
G01 X224.60 Y50.00 U196.42 F600.00
G01 X225.70 Y50.00 U197.47 F600.00
G01 X226.80 Y50.00 U198.53 F600.00
G01 X227.90 Y50.00 U199.58 F600.00
G01 X229.00 Y50.00 U200.64 F600.00
G01 X230.10 Y50.00 U201.70 F600.00
G01 X231.20 Y50.00 U202.75 F600.00
G01 X232.30 Y50.00 U203.81 F600.00
G01 X233.40 Y50.00 U204.86 F600.00
G01 X234.50 Y50.00 U205.92 F600.00
G01 X235.60 Y50.00 U206.98 F600.00
G01 X236.70 Y50.00 U208.03 F600.00
G01 X237.80 Y50.00 U209.09 F600.00
G01 X238.90 Y50.00 U210.14 F600.00
G01 X240.00 Y50.00 U211.20 F600.00
G01 X240.00 Y51.00 U212.16 F600.00
G01 X238.90 Y51.00 U213.22 F600.00
G01 X237.80 Y51.00 U214.27 F600.00
G01 X236.70 Y51.00 U215.33 F600.00
G01 X235.60 Y51.00 U216.38 F600.00
G01 X234.50 Y51.00 U217.44 F600.00
G01 X233.40 Y51.00 U218.50 F600.00
G01 X232.30 Y51.00 U219.55 F600.00
G01 X231.20 Y51.00 U220.61 F600.00
G01 X230.10 Y51.00 U221.66 F600.00
G01 X229.00 Y51.00 U222.72 F600.00
G01 X227.90 Y51.00 U223.78 F600.00
G01 X226.80 Y51.00 U224.83 F600.00
G01 X225.70 Y51.00 U225.89 F600.00
G01 X224.60 Y51.00 U226.94 F600.00
G01 X223.50 Y51.00 U228.00 F600.00
G01 X222.40 Y51.00 U229.06 F600.00
G01 X221.30 Y51.00 U230.11 F600.00
G01 X220.20 Y51.00 U231.17 F600.00
G01 X219.10 Y51.00 U232.22 F600.00
G01 X218.00 Y51.00 U233.28 F600.00
G01 X216.90 Y51.00 U234.34 F600.00
G01 X215.80 Y51.00 U235.39 F600.00
G01 X214.70 Y51.00 U236.45 F600.00
G01 X213.60 Y51.00 U237.50 F600.00
G01 X212.50 Y51.00 U238.56 F600.00
G01 X211.40 Y51.00 U239.62 F600.00
G01 X210.30 Y51.00 U240.67 F600.00
G01 X209.20 Y51.00 U241.73 F600.00
G01 X208.10 Y51.00 U242.78 F600.00
G01 X207.00 Y51.00 U243.84 F600.00
G01 X205.90 Y51.00 U244.90 F600.00
G01 X204.80 Y51.00 U245.95 F600.00
G01 X203.70 Y51.00 U247.01 F600.00
G01 X202.60 Y51.00 U248.06 F600.00
G01 X201.50 Y51.00 U249.12 F600.00
G01 X200.40 Y51.00 U250.18 F600.00
G01 X199.30 Y51.00 U251.23 F600.00
G01 X198.20 Y51.00 U252.29 F600.00
G01 X197.10 Y51.00 U253.34 F600.00
G01 X196.00 Y51.00 U254.40 F600.00
G01 X194.90 Y51.00 U255.46 F600.00
G01 X193.80 Y51.00 U256.51 F600.00
G01 X192.70 Y51.00 U257.57 F600.00
G01 X191.60 Y51.00 U258.62 F600.00
G01 X190.50 Y51.00 U259.68 F600.00
G01 X189.40 Y51.00 U260.74 F600.00
G01 X188.30 Y51.00 U261.79 F600.00
G01 X187.20 Y51.00 U262.85 F600.00
G01 X186.10 Y51.00 U263.90 F600.00
G01 X185.00 Y51.00 U264.96 F600.00
G01 X183.90 Y51.00 U266.02 F600.00
G01 X182.80 Y51.00 U267.07 F600.00
G01 X181.70 Y51.00 U268.13 F600.00
G01 X180.60 Y51.00 U269.18 F600.00
G01 X179.50 Y51.00 U270.24 F600.00
G01 X178.40 Y51.00 U271.30 F600.00
G01 X177.30 Y51.00 U272.35 F600.00
G01 X176.20 Y51.00 U273.41 F600.00
G01 X175.10 Y51.00 U274.46 F600.00
G01 X174.00 Y51.00 U275.52 F600.00
G01 X172.90 Y51.00 U276.58 F600.00
G01 X171.80 Y51.00 U277.63 F600.00
G01 X170.70 Y51.00 U278.69 F600.00
G01 X169.60 Y51.00 U279.74 F600.00
G01 X168.50 Y51.00 U280.80 F600.00
G01 X167.40 Y51.00 U281.86 F600.00
G01 X166.30 Y51.00 U282.91 F600.00
G01 X165.20 Y51.00 U283.97 F600.00
G01 X164.10 Y51.00 U285.02 F600.00
G01 X163.00 Y51.00 U286.08 F600.00
G01 X161.90 Y51.00 U287.14 F600.00
G01 X160.80 Y51.00 U288.19 F600.00
G01 X159.70 Y51.00 U289.25 F600.00
G01 X158.60 Y51.00 U290.30 F600.00
G01 X157.50 Y51.00 U291.36 F600.00
G01 X156.40 Y51.00 U292.42 F600.00
G01 X155.30 Y51.00 U293.47 F600.00
G01 X154.20 Y51.00 U294.53 F600.00
G01 X153.10 Y51.00 U295.58 F600.00
G01 X152.00 Y51.00 U296.64 F600.00
G01 X150.90 Y51.00 U297.70 F600.00
G01 X149.80 Y51.00 U298.75 F600.00
G01 X148.70 Y51.00 U299.81 F600.00
G01 X147.60 Y51.00 U300.86 F600.00
G01 X146.50 Y51.00 U301.92 F600.00
G01 X145.40 Y51.00 U302.98 F600.00
G01 X144.30 Y51.00 U304.03 F600.00
G01 X143.20 Y51.00 U305.09 F600.00
G01 X142.10 Y51.00 U306.14 F600.00
G01 X141.00 Y51.00 U307.20 F600.00
G01 X139.90 Y51.00 U308.26 F600.00
G01 X138.80 Y51.00 U309.31 F600.00
G01 X137.70 Y51.00 U310.37 F600.00
G01 X136.60 Y51.00 U311.42 F600.00
G01 X135.50 Y51.00 U312.48 F600.00
G01 X134.40 Y51.00 U313.54 F600.00
G01 X133.30 Y51.00 U314.59 F600.00
G01 X132.20 Y51.00 U315.65 F600.00
G01 X131.10 Y51.00 U316.70 F600.00
G01 X130.00 Y51.00 U317.76 F600.00
G01 X128.90 Y51.00 U318.82 F600.00
G01 X127.80 Y51.00 U319.87 F600.00
G01 X126.70 Y51.00 U320.93 F600.00
G01 X125.60 Y51.00 U321.98 F600.00
G01 X124.50 Y51.00 U323.04 F600.00
G01 X123.40 Y51.00 U324.10 F600.00
G01 X122.30 Y51.00 U325.15 F600.00
G01 X121.20 Y51.00 U326.21 F600.00
G01 X120.10 Y51.00 U327.26 F600.00
G01 X119.00 Y51.00 U328.32 F600.00
G01 X117.90 Y51.00 U329.38 F600.00
G01 X116.80 Y51.00 U330.43 F600.00
G01 X115.70 Y51.00 U331.49 F600.00
G01 X114.60 Y51.00 U332.54 F600.00
G01 X113.50 Y51.00 U333.60 F600.00
G01 X112.40 Y51.00 U334.66 F600.00
G01 X111.30 Y51.00 U335.71 F600.00
G01 X110.20 Y51.00 U336.77 F600.00
G01 X109.10 Y51.00 U337.82 F600.00
G01 X108.00 Y51.00 U338.88 F600.00
G01 X106.90 Y51.00 U339.94 F600.00
G01 X105.80 Y51.00 U340.99 F600.00
G01 X104.70 Y51.00 U342.05 F600.00
G01 X103.60 Y51.00 U343.10 F600.00
G01 X102.50 Y51.00 U344.16 F600.00
G01 X101.40 Y51.00 U345.22 F600.00
G01 X100.30 Y51.00 U346.27 F600.00
G01 X99.20 Y51.00 U347.33 F600.00
G01 X98.10 Y51.00 U348.38 F600.00
G01 X97.00 Y51.00 U349.44 F600.00
G01 X95.90 Y51.00 U350.50 F600.00
G01 X94.80 Y51.00 U351.55 F600.00
G01 X93.70 Y51.00 U352.61 F600.00
G01 X92.60 Y51.00 U353.66 F600.00
G01 X91.50 Y51.00 U354.72 F600.00
G01 X90.40 Y51.00 U355.78 F600.00
G01 X89.30 Y51.00 U356.83 F600.00
G01 X88.20 Y51.00 U357.89 F600.00
G01 X87.10 Y51.00 U358.94 F600.00
G01 X86.00 Y51.00 U360.00 F600.00
G01 X84.90 Y51.00 U361.06 F600.00
G01 X83.80 Y51.00 U362.11 F600.00
G01 X82.70 Y51.00 U363.17 F600.00
G01 X81.60 Y51.00 U364.22 F600.00
G01 X80.50 Y51.00 U365.28 F600.00
G01 X79.40 Y51.00 U366.34 F600.00
G01 X78.30 Y51.00 U367.39 F600.00
G01 X77.20 Y51.00 U368.45 F600.00
G01 X76.10 Y51.00 U369.50 F600.00
G01 X75.00 Y51.00 U370.56 F600.00
G01 X73.90 Y51.00 U371.62 F600.00
G01 X72.80 Y51.00 U372.67 F600.00
G01 X71.70 Y51.00 U373.73 F600.00
G01 X70.60 Y51.00 U374.78 F600.00
G01 X69.50 Y51.00 U375.84 F600.00
G01 X68.40 Y51.00 U376.90 F600.00
G01 X67.30 Y51.00 U377.95 F600.00
G01 X66.20 Y51.00 U379.01 F600.00
G01 X65.10 Y51.00 U380.06 F600.00
G01 X64.00 Y51.00 U381.12 F600.00
G01 X62.90 Y51.00 U382.18 F600.00
G01 X61.80 Y51.00 U383.23 F600.00
G01 X60.70 Y51.00 U384.29 F600.00
G01 X59.60 Y51.00 U385.34 F600.00
G01 X58.50 Y51.00 U386.40 F600.00
G01 X57.40 Y51.00 U387.46 F600.00
G01 X56.30 Y51.00 U388.51 F600.00
G01 X55.20 Y51.00 U389.57 F600.00
G01 X54.10 Y51.00 U390.62 F600.00
G01 X53.00 Y51.00 U391.68 F600.00
G01 X51.90 Y51.00 U392.74 F600.00
G01 X50.80 Y51.00 U393.79 F600.00
G01 X49.70 Y51.00 U394.85 F600.00
G01 X48.60 Y51.00 U395.90 F600.00
G01 X47.50 Y51.00 U396.96 F600.00
G01 X46.40 Y51.00 U398.02 F600.00
G01 X45.30 Y51.00 U399.07 F600.00
G01 X44.20 Y51.00 U400.13 F600.00
G01 X43.10 Y51.00 U401.18 F600.00
G01 X42.00 Y51.00 U402.24 F600.00
G01 X40.90 Y51.00 U403.30 F600.00
G01 X39.80 Y51.00 U404.35 F600.00
G01 X38.70 Y51.00 U405.41 F600.00
G01 X37.60 Y51.00 U406.46 F600.00
G01 X36.50 Y51.00 U407.52 F600.00
G01 X35.40 Y51.00 U408.58 F600.00
G01 X34.30 Y51.00 U409.63 F600.00
G01 X33.20 Y51.00 U410.69 F600.00
G01 X32.10 Y51.00 U411.74 F600.00
G01 X31.00 Y51.00 U412.80 F600.00
G01 X29.90 Y51.00 U413.86 F600.00
G01 X28.80 Y51.00 U414.91 F600.00
G01 X27.70 Y51.00 U415.97 F600.00
G01 X26.60 Y51.00 U417.02 F600.00
G01 X25.50 Y51.00 U418.08 F600.00
G01 X24.40 Y51.00 U419.14 F600.00
G01 X23.30 Y51.00 U420.19 F600.00
G01 X22.20 Y51.00 U421.25 F600.00
G01 X21.10 Y51.00 U422.30 F600.00
G01 X20.00 Y51.00 U423.36 F600.00
G01 X20.00 Y52.00 U424.32 F600.00
G01 X21.10 Y52.00 U425.38 F600.00
G01 X22.20 Y52.00 U426.43 F600.00
G01 X23.30 Y52.00 U427.49 F600.00
G01 X24.40 Y52.00 U428.54 F600.00
G01 X25.50 Y52.00 U429.60 F600.00
G01 X26.60 Y52.00 U430.66 F600.00
G01 X27.70 Y52.00 U431.71 F600.00
G01 X28.80 Y52.00 U432.77 F600.00
G01 X29.90 Y52.00 U433.82 F600.00
G01 X31.00 Y52.00 U434.88 F600.00
G01 X32.10 Y52.00 U435.94 F600.00
G01 X33.20 Y52.00 U436.99 F600.00
G01 X34.30 Y52.00 U438.05 F600.00
G01 X35.40 Y52.00 U439.10 F600.00
G01 X36.50 Y52.00 U440.16 F600.00
G01 X37.60 Y52.00 U441.22 F600.00
G01 X38.70 Y52.00 U442.27 F600.00
G01 X39.80 Y52.00 U443.33 F600.00
G01 X40.90 Y52.00 U444.38 F600.00
G01 X42.00 Y52.00 U445.44 F600.00
G01 X43.10 Y52.00 U446.50 F600.00
G01 X44.20 Y52.00 U447.55 F600.00
G01 X45.30 Y52.00 U448.61 F600.00
G01 X46.40 Y52.00 U449.66 F600.00
G01 X47.50 Y52.00 U450.72 F600.00
G01 X48.60 Y52.00 U451.78 F600.00
G01 X49.70 Y52.00 U452.83 F600.00
G01 X50.80 Y52.00 U453.89 F600.00
G01 X51.90 Y52.00 U454.94 F600.00
G01 X53.00 Y52.00 U456.00 F600.00
G01 X54.10 Y52.00 U457.06 F600.00
G01 X55.20 Y52.00 U458.11 F600.00
G01 X56.30 Y52.00 U459.17 F600.00
G01 X57.40 Y52.00 U460.22 F600.00
G01 X58.50 Y52.00 U461.28 F600.00
G01 X59.60 Y52.00 U462.34 F600.00
G01 X60.70 Y52.00 U463.39 F600.00
G01 X61.80 Y52.00 U464.45 F600.00
G01 X62.90 Y52.00 U465.50 F600.00
G01 X64.00 Y52.00 U466.56 F600.00
G01 X65.10 Y52.00 U467.62 F600.00
G01 X66.20 Y52.00 U468.67 F600.00
G01 X67.30 Y52.00 U469.73 F600.00
G01 X68.40 Y52.00 U470.78 F600.00
G01 X69.50 Y52.00 U471.84 F600.00
G01 X70.60 Y52.00 U472.90 F600.00
G01 X71.70 Y52.00 U473.95 F600.00
G01 X72.80 Y52.00 U475.01 F600.00
G01 X73.90 Y52.00 U476.06 F600.00
G01 X75.00 Y52.00 U477.12 F600.00
G01 X76.10 Y52.00 U478.18 F600.00
G01 X77.20 Y52.00 U479.23 F600.00
G01 X78.30 Y52.00 U480.29 F600.00
G01 X79.40 Y52.00 U481.34 F600.00
G01 X80.50 Y52.00 U482.40 F600.00
G01 X81.60 Y52.00 U483.46 F600.00
G01 X82.70 Y52.00 U484.51 F600.00
